X:77
T:Grading the Road
R:jig
C:Bruce Osborne  --  June 14 1991
Z:bosborne@kos.net
M:6/8
L:1/8
K:D
FE|DFA BAF|dcd AFA|fef dAF|G4 GF|\
EFE CEC|B,EB, A,EA,|ABA EFG|FGF A,B,C|\
DFA BAF|dcd AFA|fef dAF|G4 GF|\
EFE CEC|B,EB, A,EA,|ABA GFE|D4||\
K:A
CD|EFE CEA|cBA Ace|aga ecA|GBe egf|\
ebg ege|BcB GFE|efe Bcd|cdc A,CD|\
EFE CEA|cBA Ace|aga ecA|GBe egf|\
ebg ege|BcB GFE|efe dcB|A4||
